!!!OTL: Wanderlust (3-43), S. 113f
!!!id: K1176
**kern
*clefG2
*k[f#c#]
*D:
{8d
8e
=1
4f#
4.f#
8g
=2
4b
4.a
8f#
=3
8.a
16g
4g
4a
=4
2f#}
=5
{8d
8e
=6
4f#
4.f#
8g
=7
4b
4.a
8f#
=8
8.a
16g
4g
4a
=9
2f#}
=10
{8f#
8f#
=11
4e
4.a
8a
=12
4g#
4.b
8b
=13
8.ee
16dd
8.cc#
16b
8.a
16g#
=14
2a}
=15
{8a
8g
=16
8.f#
16d
4.f#
8g
=17
4b
4.a
8f#
=18
8.a
16g
4g
4a
=19
2f#}
==
*-
!!!minrhy: 16
!!!meters: 3/4 ]  ZZ[4
!!!cut: Wanderlust (3-43), S. 113f
!!!reg: Luxemburg
!!!trd: KINTZELE, Guillaume: An der Ucht, Bd. 3 Luxemburg 1928
!!!rhy1: X_X_  X__X__.X_  X__X__.X_  X_.XX__X__  X___
!!!rhy2: X_X_  X__X__.X_  X__X__.X_  X_.XX__X__  X___
!!!key: K1176  16  D 3/4 ]  ZZ[4
!!!mod: ACHTTONSKALA DUR ?]  AMBITUS[9
!!!kad: 3353
!!!akz: 3653_3653_24#+25_3653_
!!!fot: 'a__a__b__aw_
!!!for: 'a__a__b__c__
!!!fok: 'Ma_Ma_Ma_$d_
!! PHRAS[AUFTAKTIG]
!!!fkt: ???
!!!bem: in der Quelle mit einer 2. Stimme versehen
!! KINTZELE
!! PR[26] 2K[5] 2G[9] 3K[9] 3G[0] 4A[5] 4Ü[0] 5A[3] 6K[0] 6G[0]
!! 7K[0] 7G[0] 8A[0] MEHR[0] SI[31] ABS[65] SR[14] SP[17]
!! ST[12] 2k[8] 2g[20] 3k[12] 3g[0] 4d[3] 4ü[0] 5d[0] 6k[0] 6g[0]
!! 7k[0] 7g[0] 8d[0] mehr[0] si[43] dm[-12] sr[28] sp[15]
!! 1F[11] 2F[47] 3F[26] 4F[3] LF[0] 2P[11] 3P[1] 4P[0] TRI[0] DF[6] AB[70]
!! TF[0] U3K[0] U3[0] U4[0] U4Ü[0] U5[0] U6K[0] U6[0] U7K[0] U7[0]
!! N1[0] N2K[0] N2[9] N3K[0] N3[24] N4[9] N4Ü[0] N5[35] N6K[0] N6[14]
!!!n7k: 0] N7[3] O1[6] O2K[0] O2[0] O3K[0] O3[0] HÖ[0
